X: 1007
T: Lincolns-Inn Jigg
%R: jig
B: Henry Playford "Apollo's Banquet", London 1687 (5th Edition)
F: https://archive.org/details/apollosbanquetco01rugg
Z: 2017 John Chambers <jc:trillian.mit.edu>
M: 6/4
L: 1/4
K: D
% - - - - - - - - - -
a |\
f>ed c>BA | B>cB A>GF | E3- E2g |\
fdf ece | B>AB c>Bc | d3- d2 :|
|: a |\
fdf ece | B>AB cde | E3- E2G |\
FAF GBd | ceA e>dc | d3- d2 |]
% - - - - - - - - - -

%%sep 1 1 500
%%sep 1 1 500

